icons/svg/seamark/pylon.svg

<?xml version="1.0" encoding="UTF-8" standalone="no"?>
<svg
   xmlns:dc="http://purl.org/dc/elements/1.1/"
   xmlns:cc="http://creativecommons.org/ns#"
   xmlns:rdf="http://www.w3.org/1999/02/22-rdf-syntax-ns#"
   xmlns:svg="http://www.w3.org/2000/svg"
   xmlns="http://www.w3.org/2000/svg"
   xmlns:sodipodi="http://sodipodi.sourceforge.net/DTD/sodipodi-0.dtd"
   xmlns:inkscape="http://www.inkscape.org/namespaces/inkscape"
   width="580"
   height="580"
   id="svg2"
   version="1.1"
   inkscape:version="0.48.4 r9939"
   sodipodi:docname="pylon_power.svg">
  <defs
     id="defs13">
    <inkscape:path-effect
       effect="gears"
       id="path-effect3774"
       is_visible="true"
       teeth="6"
       phi="-1.2" />
    <inkscape:path-effect
       effect="bend_path"
       id="path-effect3772"
       is_visible="false"
       bendpath="m 95.790098,316.51174 c 144.429032,-206.42506 223.313032,-11.7428 339.548092,0"
       prop_scale="1.19"
       scale_y_rel="false"
       vertical="false"
       bendpath-nodetypes="cc" />
  </defs>
  <sodipodi:namedview
     pagecolor="#ffffff"
     bordercolor="#666666"
     borderopacity="1"
     objecttolerance="10"
     gridtolerance="10"
     guidetolerance="10"
     inkscape:pageopacity="0"
     inkscape:pageshadow="2"
     inkscape:window-width="1920"
     inkscape:window-height="1004"
     id="namedview11"
     showgrid="false"
     inkscape:zoom="1.1508772"
     inkscape:cx="320.61243"
     inkscape:cy="313.46789"
     inkscape:window-x="1680"
     inkscape:window-y="0"
     inkscape:window-maximized="1"
     inkscape:current-layer="svg2" />
  <metadata
     id="metadata2975">image/svg+xmlen<rdf:RDF>
  <cc:Work
     rdf:about="">
    <dc:format>image/svg+xml</dc:format>
    <dc:type
       rdf:resource="http://purl.org/dc/dcmitype/StillImage" />
    <dc:title></dc:title>
  </cc:Work>
</rdf:RDF>
</metadata>
  <path
     sodipodi:type="inkscape:offset"
     inkscape:radius="30.423996"
     inkscape:original="M 247.96875 85.6875 A 8.21875 8.21875 0 0 0 239.8125 94.96875 A 12.867615 12.867615 0 0 0 239 98.21875 L 192.3125 478.0625 A 12.867615 12.867615 0 1 0 217.84375 481.1875 L 218.1875 478.40625 L 288.8125 428.1875 L 361.71875 479.4375 L 362.15625 482.96875 A 12.867615 12.867615 0 1 0 387.6875 479.84375 L 341 98.21875 A 12.867615 12.867615 0 0 0 340.375 95.4375 A 8.21875 8.21875 0 0 0 332.3125 85.6875 L 247.96875 85.6875 z M 270.5625 102.125 L 309.46875 102.125 L 290.03125 121.25 L 270.5625 102.125 z M 262.71875 116.125 L 278.96875 132.125 L 258.25 152.53125 L 262.71875 116.125 z M 317.28125 116.15625 L 321.71875 152.4375 L 301.0625 132.125 L 317.28125 116.15625 z M 290 143 L 323.03125 175.5 L 290.40625 204.53125 L 257.375 175.125 L 290 143 z M 253.34375 192.3125 L 278.75 214.90625 L 247.125 243.09375 L 253.34375 192.3125 z M 326.6875 193.03125 L 332.6875 242.1875 L 302.0625 214.90625 L 326.6875 193.03125 z M 290.40625 225.3125 L 335.53125 265.4375 L 335.6875 266.71875 L 290.5625 301.71875 L 244.875 265.84375 L 290.40625 225.3125 z M 242.15625 283.40625 L 277.9375 311.5 L 234.5625 345.125 L 242.15625 283.40625 z M 337.90625 284.625 L 345.21875 344.625 L 303.125 311.5625 L 337.90625 284.625 z M 290.5 321.375 L 347.90625 366.40625 L 347.96875 367.0625 L 288.75 409.1875 L 231.625 369.03125 L 231.90625 366.78125 L 290.5 321.375 z M 350.125 384.5625 L 359.1875 458.6875 L 302.21875 418.65625 L 350.125 384.5625 z M 229.46875 386.46875 L 275.34375 418.71875 L 220.75 457.5625 L 229.46875 386.46875 z "
     style="font-size:medium;font-style:normal;font-variant:normal;font-weight:normal;font-stretch:normal;text-indent:0;text-align:start;text-decoration:none;line-height:normal;letter-spacing:normal;word-spacing:normal;text-transform:none;direction:ltr;block-progression:tb;writing-mode:lr-tb;text-anchor:start;baseline-shift:baseline;opacity:0.372;color:#000000;fill:#e4e4e4;fill-opacity:1;fill-rule:nonzero;stroke:#a35151;stroke-width:0;stroke-linecap:round;stroke-linejoin:miter;stroke-miterlimit:4;stroke-opacity:1;stroke-dasharray:none;stroke-dashoffset:0;marker:none;visibility:visible;display:inline;overflow:visible;enable-background:accumulate;font-family:Sans;-inkscape-font-specification:Sans"
     id="path4033"
     d="m 247.96875,55.25 c 2.92946,0.04109 -18.79424,4.728759 -15.9375,3.4375 2.86858,-1.29661 -15.1718,12.083423 -13.09375,9.71875 2.07805,-2.364673 -8.85476,17.261411 -7.9375,14.25 0.25814,-0.847498 0.24406,0.458845 0.15625,2.5 -0.26907,1.604278 -2.32265,10.052723 -2.3125,9.34375 l -0.0312,0 -0.0312,0.25 -46.53125,378.65625 -0.125,0.9375 0.21875,0.0312 c 0.40232,0.2449 1.22776,18.36441 0.6875,16.21875 -0.57268,-2.27442 8.88338,17.43327 7.46875,15.5625 -1.41463,-1.87077 14.93864,12.57687 12.90625,11.40625 -2.03239,-1.17062 18.70304,5.72245 16.375,5.4375 -2.32804,-0.28495 19.41098,-1.98963 17.15625,-1.34375 -2.25473,0.64588 17.13657,-9.41185 15.3125,-7.9375 -1.82407,1.47435 12.07308,-15.38166 10.96875,-13.3125 -0.20075,0.37613 0.57949,-2.16581 0.78125,-3.03125 l 44.90625,-31.9375 46.90625,32.96875 c 0.34373,1.35484 1.21907,4.25027 0.96875,3.78125 -1.10433,-2.06916 12.79282,14.78685 10.96875,13.3125 -1.82407,-1.47435 17.56723,8.58338 15.3125,7.9375 -2.25473,-0.64588 19.48429,1.0588 17.15625,1.34375 -2.32804,0.28495 18.40739,-6.60812 16.375,-5.4375 -2.03239,1.17062 14.32088,-13.27702 12.90625,-11.40625 -1.41463,1.87077 8.04143,-17.83692 7.46875,-15.5625 -0.53922,2.14154 0.28418,-15.87025 0.6875,-16.1875 l 0.21875,-0.0312 -0.125,-0.96875 -46.53125,-380.3125 0.0312,0 c 0.003,0.02557 -0.0319,-0.202947 -0.0312,-0.1875 5.6e-4,0.01297 -0.0303,-0.162347 -0.0312,-0.15625 -0.0458,0.30932 -1.61437,-6.572972 -1.8125,-7.875 0.0118,-1.005155 0.0674,-1.864908 0.125,-2.28125 -1.27752,-1.654344 -7.00803,-12.879562 -7.625,-14.9375 -1.9129,-1.002955 -11.71319,-8.624333 -13.1875,-10.25 -2.49369,-0.09913 -18.91218,-3.889324 -16.375,-3.9375 l -84.3125,0 -0.0312,0 z m 122.0625,45.78125 0.25,0.0625 c -0.0809,0.42682 -0.1681,0.3266 -0.25,-0.0625 z m -79.65625,258.9375 7.1875,5.625 -8.90625,6.34375 -7.21875,-5.0625 8.9375,-6.90625 z" />
  <g
     id="g1327"
     transform="matrix(28.917722,0,0,28.917722,58.658082,-16250.937)"
     style="stroke:#2c2c2c;stroke-opacity:1" />
  <path
     style="fill:none;stroke:#000000;stroke-width:25.73265648;stroke-linecap:round;stroke-linejoin:round;stroke-miterlimit:4;stroke-opacity:1;stroke-dasharray:none"
     d="M 205.07212,479.63371 251.76585,99.797121"
     inkscape:connector-curvature="0"
     sodipodi:nodetypes="cc"
     id="path7" />
  <path
     style="fill:none;stroke:#000000;stroke-width:25.73265648;stroke-linecap:round;stroke-linejoin:round;stroke-miterlimit:4;stroke-opacity:1;stroke-dasharray:none"
     d="M 374.92788,481.4295 328.23415,99.797121"
     inkscape:connector-curvature="0"
     sodipodi:nodetypes="cc"
     id="path3806-9" />
  <path
     style="color:#000000;fill:none;stroke:#000000;stroke-width:16.42576027;stroke-linecap:round;stroke-linejoin:round;stroke-miterlimit:4;stroke-opacity:1;stroke-dasharray:none;stroke-dashoffset:0;marker:none;visibility:visible;display:inline;overflow:visible;enable-background:accumulate"
     d="m 247.9799,93.917051 84.34367,0"
     inkscape:connector-curvature="0"
     sodipodi:nodetypes="cc"
     id="path10" />
  <path
     style="fill:none;stroke:#000000;stroke-width:15.50160027;stroke-linecap:round;stroke-linejoin:round;stroke-miterlimit:4;stroke-opacity:1;stroke-dasharray:none"
     d="M 206.86792,476.93974 361.31689,367.10936 230.16656,264.16285"
     inkscape:connector-curvature="0"
     sodipodi:nodetypes="ccc"
     id="path26" />
  <path
     style="fill:none;stroke:#000000;stroke-width:15.50160027;stroke-linecap:butt;stroke-linejoin:round;stroke-miterlimit:4;stroke-opacity:1;stroke-dasharray:none"
     d="M 371.65121,476.93974 217.20224,368.38666 352.039,263.88292"
     inkscape:connector-curvature="0"
     sodipodi:nodetypes="ccc"
     id="path28" />
  <path
     style="color:#000000;fill:none;stroke:#000000;stroke-width:15.50160027;stroke-linecap:butt;stroke-linejoin:miter;stroke-miterlimit:4;stroke-opacity:1;stroke-dasharray:none;stroke-dashoffset:0;marker:none;visibility:visible;display:inline;overflow:visible;enable-background:accumulate"
     d="M 236.50049,262.91765 334.37801,175.80244 257.15352,99.808691"
     inkscape:connector-curvature="0"
     sodipodi:nodetypes="ccc"
     id="path30" />
  <path
     style="color:#000000;fill:none;stroke:#000000;stroke-width:15.50160027;stroke-linecap:butt;stroke-linejoin:miter;stroke-miterlimit:4;stroke-opacity:1;stroke-dasharray:none;stroke-dashoffset:0;marker:none;visibility:visible;display:inline;overflow:visible;enable-background:accumulate"
     d="M 343.909,262.55069 246.03147,175.43576 323.25596,99.441721"
     inkscape:connector-curvature="0"
     sodipodi:nodetypes="ccc"
     id="path32" />
  <g
     id="g1327-1"
     transform="matrix(28.917722,0,0,28.917722,-454.986,-16233.733)"
     style="stroke:#2c2c2c;stroke-opacity:1" />
</svg>

<svg width="580" height="580" viewBox="0 0 580 580" fill="none" xmlns="http://www.w3.org/2000/svg">
<path opacity="0.372" d="M247.969 55.25C250.898 55.2911 229.174 59.9788 232.031 58.6875C234.9 57.3909 216.859 70.7709 218.937 68.4062C221.015 66.0416 210.083 85.6677 211 82.6562C211.258 81.8088 211.244 83.1151 211.156 85.1562C210.887 86.7605 208.833 95.209 208.844 94.5H208.812L208.781 94.75L162.25 473.406L162.125 474.344L162.344 474.375C162.746 474.62 163.572 492.739 163.031 490.594C162.459 488.319 171.915 508.027 170.5 506.156C169.085 504.285 185.439 518.733 183.406 517.562C181.374 516.392 202.109 523.285 199.781 523C197.453 522.715 219.192 521.01 216.938 521.656C214.683 522.302 234.074 512.244 232.25 513.719C230.426 515.193 244.323 498.337 243.219 500.406C243.018 500.782 243.798 498.24 244 497.375L288.906 465.437L335.812 498.406C336.156 499.761 337.032 502.656 336.781 502.187C335.677 500.118 349.574 516.974 347.75 515.5C345.926 514.026 365.317 524.083 363.062 523.437C360.808 522.792 382.547 524.496 380.219 524.781C377.891 525.066 398.626 518.173 396.594 519.344C394.561 520.514 410.915 506.067 409.5 507.937C408.085 509.808 417.541 490.101 416.969 492.375C416.43 494.516 417.253 476.505 417.656 476.187L417.875 476.156L417.75 475.188L371.219 94.875H371.25C371.253 94.9006 371.218 94.6721 371.219 94.6875C371.219 94.7005 371.188 94.5252 371.188 94.5312C371.142 94.8406 369.573 87.9583 369.375 86.6562C369.387 85.6511 369.442 84.7913 369.5 84.375C368.223 82.7207 362.492 71.4954 361.875 69.4375C359.962 68.4345 350.162 60.8132 348.688 59.1875C346.194 59.0884 329.775 55.2982 332.313 55.25H248H247.969H247.969ZM370.031 101.031L370.281 101.094C370.2 101.521 370.113 101.42 370.031 101.031ZM290.375 359.969L297.562 365.594L288.656 371.938L281.437 366.875L290.375 359.969Z" fill="#E4E4E4"/>
<path d="M205.072 479.633L251.766 99.7969" stroke="black" stroke-width="25.7327" stroke-linecap="round" stroke-linejoin="round"/>
<path d="M374.928 481.429L328.234 99.7969" stroke="black" stroke-width="25.7327" stroke-linecap="round" stroke-linejoin="round"/>
<path d="M247.98 93.918H332.324" stroke="black" stroke-width="16.4258" stroke-linecap="round" stroke-linejoin="round"/>
<path d="M206.868 476.939L361.317 367.109L230.167 264.162" stroke="black" stroke-width="15.5016" stroke-linecap="round" stroke-linejoin="round"/>
<path d="M371.651 476.94L217.202 368.387L352.039 263.883" stroke="black" stroke-width="15.5016" stroke-linejoin="round"/>
<path d="M236.5 262.918L334.378 175.802L257.154 99.8086" stroke="black" stroke-width="15.5016"/>
<path d="M343.909 262.55L246.031 175.435L323.256 99.4414" stroke="black" stroke-width="15.5016"/>
</svg>
